X:2197 
T:Shepherds the weather is misty and changing 
C:Traditional
O:Isle of Man
Z:Clague collection
N:See KV #171
B:Kiaull Vannin #197 
M:3/4 
L:1/4
K:D 
F|FB^A|BBc|dcB|AFF|FB^A|B2 B/c/|dee|f2:||
d/e/|ffd |ee f/e/|dBB|AFF|FB^A|BBc|dee|f2 d/e/|
ffd|ee f/e/|dBB|AFc|d3/2e/f|def|ddc|B2||

